X:364
%%etbk:tnset id:177,pos:2,rep:3x,ant:
%%etbk:wsite http://www.trad.katesplacedoolin.com/tunes/pulltheknifeandstickitin.html
%%etbk:pldat 2015-07-22T17:16,2015-03-26T19:26,2015-02-03T16:56,2014-12-18T18:26,2014-09-08T18:39,2014-05-12T18:27,2014-05-06T15:53,2014-03-21T16:07,2014-02-12T18:39,2014-02-11T17:29,2014-02-09T11:08,2013-11-12T17:54,2013-11-07T16:27,2013-09-17T10:26,2013-09-02T18:46,2013-08-26T19:02,2013-05-18T13:47,2013-05-14T18:01,2013-05-12T18:11
T:Pull The Knife And Stick It In
Z: Piano Box Version by Martin Fleischmann
H: Created 2013-02-19 /  Last Modified 2014-05-06
M:6/8
L:1/8
R:jig
K:Edor
|: "em"!3!E2E !5!GFE | "bm"!2!D!1!B,!3!E !2!D!1!B,!2!D | "em"!3!E2!1!E !3!GFE | "bm"!4!ABG !4!A!2!F!1!D |
"em"!3!E2E !5!GFE | "bm"!2!D!1!B,!3!E !2!DEF | "em"!5!G2E "bm"!4!FE!2!D |1 "em"!1!B,!3!E!2!D !3!E2!2!D:|2 "em"!1!B,!3!E!2!D !3!!1!E3||
|: "em"!4!e!3!d!2!B !2!B!1!A!3!F | "bm"!2!E!1!D!2!B, !1!D2D | "em"!4!e!3!d!2!B !2!B!1!A!2!F | "bm"!1!AB!3!c !3!d!4!e!5!f |
"em"!2!e!1!d!2!B !2!B!1!A!3!F | "bm"!2!E!1!D!2!D !2!DEF | "em"!6!G2E "bm"!4!FE!2!D |1 "em"!1!B,!3!E!2!D !3!E3:|2 "em"!1!B,!3!E!2!D !3!E2!2!D||


